packages/ui-icons/svg/Line/files-creative-commons.svg

<svg viewBox="0 0 1920 1920" version="1.1" xmlns="http://www.w3.org/2000/svg">
    <path d="M960,0 C1489.35529,0 1920,430.644706 1920,960 C1920,1489.35529 1489.35529,1920 960,1920 C430.644706,1920 0,1489.35529 0,960 C0,430.644706 430.644706,0 960,0 Z M960,112.941176 C492.875294,112.941176 112.941176,492.875294 112.941176,960 C112.941176,1427.12471 492.875294,1807.05882 960,1807.05882 C1427.12471,1807.05882 1807.05882,1427.12471 1807.05882,960 C1807.05882,492.875294 1427.12471,112.941176 960,112.941176 Z M760.807762,727.000045 C852.90912,726.953694 918.841145,762.779203 958.698313,834.501933 L958.698313,834.501933 L958.651949,834.524671 L859.021276,886.335887 C848.376835,864.217909 835.316225,848.697458 819.861315,839.868982 C804.360042,831.039631 789.974126,826.57948 776.680821,826.57948 C710.307028,826.57948 677.072893,870.374667 677.072893,958.011391 C677.072893,997.83442 685.509365,1029.66416 702.312325,1053.57144 C719.13803,1077.50234 743.912074,1089.44418 776.680821,1089.44418 C820.093135,1089.44418 850.631168,1068.16226 868.36403,1025.69113 L868.36403,1025.69113 L960,1072.15803 C940.524557,1108.47241 913.519799,1136.97977 878.984852,1157.79731 C844.495393,1178.61484 806.4053,1189 764.781932,1189 C698.384519,1189 644.792278,1168.67046 604.075192,1127.89593 C563.358981,1087.23684 543,1030.54744 543,958.011391 C543,887.195559 563.5908,831.016893 604.749655,789.405431 C645.884891,747.816708 697.942751,727.000045 760.807762,727.000045 Z M1190.83198,727.000045 C1282.91996,726.953693 1348.48836,762.781431 1387.41996,834.506873 L1387.41996,834.506873 L1289.10279,886.319173 C1278.5044,864.200359 1265.3951,848.67932 1249.93847,839.850511 C1234.36548,831.020827 1219.53702,826.560507 1205.4286,826.560507 C1139.0238,826.560507 1105.78684,870.35735 1105.78684,957.997388 C1105.78684,997.821922 1114.22338,1029.65286 1131.02821,1053.56105 C1147.83304,1077.49286 1172.63258,1089.43514 1205.40497,1089.43514 C1248.77662,1089.43514 1279.31717,1068.15242 1297.02839,1025.67968 L1297.02839,1025.67968 L1390,1072.14834 C1369.66238,1108.46409 1342.18918,1136.97253 1307.72038,1157.79086 C1273.71615,1178.46925 1234.62182,1189.27372 1194.80659,1188.99473 C1127.49541,1188.99473 1073.71174,1168.66442 1033.50106,1127.88835 C993.128524,1087.22772 973,1030.53618 973,957.997388 C973,887.178878 993.570342,830.998088 1034.78014,789.385052 C1075.9427,747.818369 1127.93723,727.000045 1190.83198,727.000045 Z" stroke="#979797" stroke-width="1" fill-rule="evenodd"/>
</svg>

<svg viewBox="0 0 1920 1920" xmlns="http://www.w3.org/2000/svg">
    <path d="M960 0c529.355 0 960 430.645 960 960s-430.645 960-960 960S0 1489.355 0 960 430.645 0 960 0Zm0 112.941c-467.125 0-847.059 379.934-847.059 847.059 0 467.125 379.934 847.059 847.059 847.059 467.125 0 847.059-379.934 847.059-847.059 0-467.125-379.934-847.059-847.059-847.059ZM760.808 727c92.101-.046 158.033 35.78 197.89 107.502l-.046.023-99.63 51.81c-10.645-22.117-23.706-37.638-39.16-46.466-15.502-8.83-29.888-13.29-43.181-13.29-66.374 0-99.608 43.796-99.608 131.432 0 39.823 8.436 71.653 25.24 95.56 16.825 23.931 41.6 35.873 74.368 35.873 43.412 0 73.95-21.282 91.683-63.753L960 1072.158c-19.475 36.314-46.48 64.822-81.015 85.64-34.49 20.817-72.58 31.202-114.203 31.202-66.397 0-119.99-20.33-160.707-61.104C563.36 1087.236 543 1030.547 543 958.01c0-70.815 20.59-126.994 61.75-168.606C645.885 747.817 697.943 727 760.808 727Zm430.024 0c92.088-.046 157.656 35.781 196.588 107.507l-98.317 51.812c-10.599-22.119-23.708-37.64-39.165-46.468-15.573-8.83-30.401-13.29-44.51-13.29-66.404 0-99.641 43.796-99.641 131.436 0 39.825 8.436 71.656 25.241 95.564 16.805 23.932 41.605 35.874 74.377 35.874 43.372 0 73.912-21.283 91.623-63.755l92.972 46.468c-20.338 36.316-47.81 64.825-82.28 85.643a214.414 214.414 0 0 1-112.913 31.204c-67.312 0-121.095-20.33-161.306-61.107-40.372-40.66-60.501-97.352-60.501-169.89 0-70.82 20.57-127 61.78-168.613 41.163-41.567 93.157-62.385 156.052-62.385Z" stroke="#979797" fill-rule="evenodd"/>
</svg>
